picto/bike-hire-right-it-framed.svg

<svg class="color-immutable" width="30" height="30" viewBox="0 0 30 30" fill="none" xmlns="http://www.w3.org/2000/svg"><path d="M0 30V0H30V30H0Z" fill="#2D327D"/><path d="M25.5 3C26.325 3 27 3.675 27 4.5V25.5C27 26.325 26.325 27 25.5 27H4.5C3.675 27 3 26.325 3 25.5V4.5C3 3.675 3.675 3 4.5 3H25.5ZM25.5 2.625H4.5C3.46613 2.625 2.625 3.46613 2.625 4.5V25.5C2.625 26.5339 3.46613 27.375 4.5 27.375H25.5C26.5339 27.375 27.375 26.5339 27.375 25.5V4.5C27.375 3.46613 26.5339 2.625 25.5 2.625Z" fill="white"/><path d="M13.0152 14.7955L11.2046 15.4287C11.1656 15.4435 11.1227 15.45 11.0809 15.45C10.9556 15.45 10.8395 15.3877 10.7699 15.2839L10.3629 14.6803C10.3296 14.6302 10.3127 14.5717 10.3127 14.5132C10.3127 14.347 10.4466 14.2124 10.612 14.2124H12.9157C13.0821 14.2124 13.2167 14.347 13.2167 14.5132C13.2167 14.6405 13.1351 14.7538 13.0152 14.7955Z" fill="white"/><path d="M19.3507 14.8125H16.725V14.2125H19.3507C19.5161 14.2125 19.65 14.347 19.65 14.5129C19.65 14.678 19.5161 14.8125 19.3507 14.8125Z" fill="white"/><path d="M19.3503 15.787H18.975C18.8095 15.787 18.6747 15.6526 18.6747 15.4874C18.6747 15.3215 18.8095 15.187 18.975 15.187H19.3503C19.5157 15.187 19.6496 15.3215 19.6496 15.4874C19.6497 15.6526 19.5157 15.787 19.3503 15.787Z" fill="white"/><path d="M9.67515 16.6493C7.64632 16.6493 6 18.2954 6 20.325C6 22.3528 7.64632 23.9999 9.67515 23.9999C11.574 23.9999 13.1607 22.5532 13.3344 20.662H14.1167C14.2775 21.0046 14.6222 21.2247 15.0011 21.2247C15.5381 21.2247 15.9755 20.7874 15.9755 20.2498C15.9755 20.0307 15.9021 19.819 15.7664 19.6473L17.7322 16.7245L18.1355 17.3725C17.201 18.067 16.6508 19.1607 16.6508 20.3249C16.6508 22.3527 18.297 23.9998 20.325 23.9998C22.3539 23.9999 24 22.3527 24 20.325C24 18.2954 22.3539 16.6493 20.3251 16.6493C19.7406 16.6493 19.1647 16.7886 18.6454 17.0558L17.9255 15.9H12.0757L11.3557 17.0558C10.8363 16.7886 10.2596 16.6493 9.67515 16.6493ZM17.2501 20.325C17.2501 19.3687 17.695 18.4672 18.4531 17.885L20.0705 20.4829C20.1253 20.571 20.2209 20.625 20.325 20.625C20.4914 20.625 20.6249 20.4904 20.6249 20.325C20.6249 20.2684 20.6092 20.2136 20.5805 20.1663L18.9631 17.5675C19.3868 17.3586 19.8522 17.2499 20.325 17.2499C22.0223 17.2499 23.4008 18.627 23.4008 20.3251C23.4008 22.0224 22.0223 23.4001 20.325 23.4001C18.6278 23.4001 17.2501 22.0222 17.2501 20.325ZM14.7317 19.312L12.8403 16.4997H17.1599L15.2685 19.312C15.1812 19.287 15.0911 19.2749 15.0011 19.2749C14.9092 19.275 14.8189 19.287 14.7317 19.312ZM13.3411 20.0622C13.2638 18.9935 12.7251 18.0112 11.8646 17.3725L12.2687 16.7245L14.2337 19.6473C14.1379 19.7679 14.073 19.9109 14.0433 20.0622H13.3411ZM11.5471 17.885C12.2326 18.4105 12.6656 19.2007 12.7391 20.0622H10.1917L11.5471 17.885ZM9.67515 23.4001C7.9779 23.4001 6.6012 22.0223 6.6012 20.325C6.6012 18.6269 7.9779 17.2498 9.67515 17.2498C10.148 17.2498 10.6143 17.3585 11.0378 17.5674L9.6945 19.7253C9.6891 19.7242 9.6816 19.7242 9.67515 19.7242C9.3444 19.7242 9.07605 19.9934 9.07605 20.3249C9.07605 20.6554 9.34448 20.9248 9.67515 20.9248C9.87383 20.9248 10.0596 20.8263 10.1712 20.662H12.7325C12.5597 22.2199 11.2433 23.4001 9.67515 23.4001Z" fill="white"/><path d="M7.9011 6V8.24865H7.40737L6.46605 6.71677L6.4722 8.24873H6V6H6.49988L7.43505 7.52888L7.4289 6H7.9011Z" fill="white"/><path d="M9.10692 6.52298C9.35097 6.52298 9.55039 6.60398 9.70527 6.76598C9.85804 6.92595 9.93447 7.13926 9.93447 7.40581C9.93447 7.68166 9.85294 7.90155 9.68989 8.06565C9.53712 8.21843 9.33822 8.29485 9.09312 8.29485C8.83167 8.29485 8.62347 8.20973 8.46867 8.03955C8.32099 7.87755 8.24719 7.66733 8.24719 7.40896C8.24719 7.15463 8.31897 6.94801 8.46252 6.78908C8.62137 6.61163 8.83617 6.52298 9.10692 6.52298ZM9.08382 6.87053C8.96592 6.87053 8.87209 6.91823 8.80234 7.01355C8.73162 7.10993 8.69622 7.24171 8.69622 7.40888C8.69622 7.58221 8.73109 7.71495 8.80084 7.80728C8.87262 7.90058 8.97057 7.94723 9.09462 7.94723C9.21049 7.94723 9.30229 7.9047 9.36994 7.81958C9.44682 7.72523 9.48529 7.58836 9.48529 7.40888C9.48529 7.24073 9.45147 7.11 9.38374 7.0167C9.31302 6.91928 9.21304 6.87053 9.08382 6.87053Z" fill="white"/><path d="M10.682 6V8.24865H10.236V6H10.682Z" fill="white"/><path d="M12.5538 7.72575C12.5302 7.8201 12.4876 7.90875 12.4261 7.99185C12.2785 8.19383 12.0662 8.29485 11.7894 8.29485C11.5392 8.29485 11.3387 8.21588 11.188 8.058C11.1142 7.98113 11.0578 7.88828 11.0188 7.7796C10.9767 7.66373 10.9557 7.54275 10.9557 7.4166C10.9557 7.17255 11.0259 6.9675 11.1664 6.80138C11.3233 6.61575 11.5263 6.52298 11.7754 6.52298C11.9764 6.52298 12.1477 6.585 12.2892 6.70905C12.3907 6.79823 12.4645 6.90825 12.5107 7.03898C12.5568 7.1697 12.5799 7.33403 12.5799 7.53196H11.4094C11.4136 7.614 11.4264 7.68218 11.4479 7.73655C11.5084 7.88318 11.6233 7.95653 11.7925 7.95653C11.8755 7.95653 11.9432 7.9383 11.9955 7.90193C12.0478 7.86555 12.0908 7.80683 12.1247 7.72583H12.5538V7.72575ZM12.1246 7.23203C12.1165 7.15103 12.098 7.08383 12.0693 7.0305C12.0406 6.97823 11.9998 6.93668 11.947 6.90593C11.8942 6.87518 11.8366 6.8598 11.774 6.8598C11.6746 6.8598 11.5925 6.8931 11.5279 6.95978C11.4634 7.02645 11.4249 7.1172 11.4126 7.23203H12.1246Z" fill="white"/><path d="M14.4226 6.5691V8.04877C14.4226 8.18002 14.4144 8.28487 14.398 8.36332C14.3816 8.44177 14.3534 8.51325 14.3134 8.5779C14.1842 8.78295 13.9525 8.88555 13.6181 8.88555C13.1526 8.88555 12.8978 8.70967 12.8537 8.358H13.3028C13.3336 8.49847 13.4418 8.56867 13.6274 8.56867C13.7689 8.56867 13.8678 8.5287 13.9242 8.44867C13.9683 8.38507 13.9904 8.28255 13.9904 8.14102L13.9919 7.93335C13.877 8.10975 13.7109 8.19787 13.4935 8.19787C13.2833 8.19787 13.1156 8.12407 12.9905 7.9764C12.8634 7.8267 12.7998 7.62472 12.7998 7.3704C12.7998 7.11607 12.8634 6.91207 12.9905 6.75825C13.1228 6.59932 13.2966 6.51982 13.5119 6.51982C13.6237 6.51982 13.717 6.54082 13.7918 6.5829C13.8667 6.6249 13.9354 6.69517 13.9979 6.79357V6.56902H14.4226V6.5691ZM13.612 6.88597C13.4869 6.88597 13.392 6.93825 13.3274 7.04287C13.2752 7.12695 13.249 7.2336 13.249 7.36282C13.249 7.52692 13.2869 7.6515 13.3628 7.73655C13.4285 7.81245 13.5141 7.8504 13.6197 7.8504C13.753 7.8504 13.853 7.79452 13.9196 7.68277C13.9709 7.59667 13.9965 7.48792 13.9965 7.35667C13.9965 7.1988 13.9571 7.07677 13.8781 6.9906C13.8135 6.92077 13.7248 6.88597 13.612 6.88597Z" fill="white"/><path d="M16.3529 6.5691V8.04877C16.3529 8.18002 16.3447 8.28487 16.3283 8.36332C16.3119 8.44177 16.2837 8.51325 16.2437 8.5779C16.1145 8.78295 15.8828 8.88555 15.5484 8.88555C15.0829 8.88555 14.8281 8.70967 14.784 8.358H15.2331C15.2639 8.49847 15.3721 8.56867 15.5577 8.56867C15.6992 8.56867 15.7981 8.5287 15.8545 8.44867C15.8986 8.38507 15.9207 8.28255 15.9207 8.14102L15.9222 7.93335C15.8073 8.10975 15.6412 8.19787 15.4238 8.19787C15.2136 8.19787 15.0459 8.12407 14.9208 7.9764C14.7937 7.8267 14.7301 7.62472 14.7301 7.3704C14.7301 7.11607 14.7937 6.91207 14.9208 6.75825C15.0531 6.59932 15.2269 6.51982 15.4422 6.51982C15.554 6.51982 15.6473 6.54082 15.7221 6.5829C15.797 6.6249 15.8657 6.69517 15.9282 6.79357V6.56902H16.3529V6.5691ZM15.5423 6.88597C15.4172 6.88597 15.3223 6.93825 15.2577 7.04287C15.2055 7.12695 15.1793 7.2336 15.1793 7.36282C15.1793 7.52692 15.2172 7.6515 15.2931 7.73655C15.3588 7.81245 15.4444 7.8504 15.55 7.8504C15.6833 7.8504 15.7833 7.79452 15.8499 7.68277C15.9012 7.59667 15.9268 7.48792 15.9268 7.35667C15.9268 7.1988 15.8874 7.07677 15.8084 6.9906C15.7438 6.92077 15.6551 6.88597 15.5423 6.88597Z" fill="white"/><path d="M17.1665 6V6.40147H16.7205V6H17.1665ZM17.1665 6.57217V8.24873H16.7205V6.57217H17.1665Z" fill="white"/><path d="M18.3277 6.52298C18.5718 6.52298 18.7712 6.60398 18.9261 6.76598C19.0789 6.92595 19.1553 7.13926 19.1553 7.40581C19.1553 7.68166 19.0738 7.90155 18.9107 8.06565C18.7579 8.21843 18.559 8.29485 18.3139 8.29485C18.0525 8.29485 17.8443 8.20973 17.6895 8.03955C17.5418 7.87755 17.468 7.66733 17.468 7.40896C17.468 7.15463 17.5398 6.94801 17.6833 6.78908C17.8422 6.61163 18.0571 6.52298 18.3277 6.52298ZM18.3046 6.87053C18.1867 6.87053 18.0929 6.91823 18.0232 7.01355C17.9524 7.10993 17.917 7.24171 17.917 7.40888C17.917 7.58221 17.9519 7.71495 18.0217 7.80728C18.0934 7.90058 18.1914 7.94723 18.3154 7.94723C18.4313 7.94723 18.523 7.9047 18.5908 7.81958C18.6676 7.72523 18.7061 7.58836 18.7061 7.40888C18.7061 7.24073 18.6723 7.11 18.6046 7.0167C18.5338 6.91928 18.4339 6.87053 18.3046 6.87053Z" fill="white"/></svg>

<svg class="color-immutable" width="30" height="30" viewBox="0 0 30 30" fill="none" xmlns="http://www.w3.org/2000/svg"><g clip-path="url(#a)"><path d="M0 30V0h30v30H0Z" fill="#2D327D"/><path d="M25.5 3c.825 0 1.5.675 1.5 1.5v21c0 .825-.675 1.5-1.5 1.5h-21c-.825 0-1.5-.675-1.5-1.5v-21C3 3.675 3.675 3 4.5 3h21Zm0-.375h-21A1.877 1.877 0 0 0 2.625 4.5v21c0 1.034.841 1.875 1.875 1.875h21a1.877 1.877 0 0 0 1.875-1.875v-21A1.877 1.877 0 0 0 25.5 2.625Z" fill="#fff"/><path d="m13.015 14.796-1.81.633a.374.374 0 0 1-.435-.145l-.407-.604a.302.302 0 0 1 .249-.468h2.304a.3.3 0 0 1 .1.584ZM19.35 14.813h-2.625v-.6h2.626a.3.3 0 0 1 0 .6ZM19.35 15.787h-.375a.3.3 0 0 1 0-.6h.375a.3.3 0 0 1 0 .6ZM9.675 16.65a3.676 3.676 0 0 0 0 7.35 3.674 3.674 0 0 0 3.66-3.338h.782a.976.976 0 1 0 1.65-1.015l1.965-2.923.404.648A3.677 3.677 0 0 0 20.325 24a3.676 3.676 0 0 0 0-7.35c-.584 0-1.16.139-1.68.406l-.72-1.156h-5.85l-.72 1.156a3.675 3.675 0 0 0-1.68-.407Zm7.575 3.675c0-.956.445-1.858 1.203-2.44l1.617 2.598a.3.3 0 1 0 .51-.317l-1.617-2.599a3.078 3.078 0 0 1 4.438 2.758 3.076 3.076 0 0 1-6.15 0Zm-2.518-1.013L12.84 16.5h4.32l-1.892 2.812a.971.971 0 0 0-.536 0Zm-1.39.75a3.68 3.68 0 0 0-1.477-2.69l.404-.648 1.965 2.923a.967.967 0 0 0-.19.415h-.703Zm-1.795-2.177a3.072 3.072 0 0 1 1.192 2.177h-2.547l1.355-2.177ZM9.675 23.4a3.075 3.075 0 1 1 1.363-5.833l-1.344 2.158h-.019a.6.6 0 1 0 .496.937h2.562A3.077 3.077 0 0 1 9.675 23.4ZM7.901 6v2.249h-.494l-.941-1.532.006 1.532H6V6h.5l.935 1.529L7.43 6H7.9ZM9.107 6.523c.244 0 .443.081.598.243.153.16.23.373.23.64 0 .276-.082.496-.245.66a.807.807 0 0 1-.597.229c-.261 0-.47-.085-.624-.255-.148-.162-.222-.373-.222-.631 0-.254.072-.461.216-.62.158-.177.373-.266.644-.266Zm-.023.348a.331.331 0 0 0-.282.143.656.656 0 0 0-.106.395c0 .173.035.306.105.398a.35.35 0 0 0 .294.14.333.333 0 0 0 .275-.127c.077-.095.115-.232.115-.411 0-.168-.034-.299-.101-.392a.349.349 0 0 0-.3-.146ZM10.682 6v2.249h-.446V6h.446ZM12.554 7.726a.751.751 0 0 1-.128.266c-.148.202-.36.303-.637.303-.25 0-.45-.08-.601-.237a.773.773 0 0 1-.17-.278 1.055 1.055 0 0 1-.062-.363c0-.244.07-.45.21-.616a.76.76 0 0 1 .61-.278c.2 0 .372.062.513.186.102.09.175.2.222.33.046.13.069.295.069.493h-1.17c.004.082.016.15.038.205.06.146.175.22.345.22.083 0 .15-.019.203-.055a.39.39 0 0 0 .129-.176h.429Zm-.43-.494a.537.537 0 0 0-.055-.202.338.338 0 0 0-.295-.17c-.1 0-.181.033-.246.1a.447.447 0 0 0-.115.272h.712ZM14.423 6.57v1.479c0 .131-.009.236-.025.314a.661.661 0 0 1-.085.215c-.129.205-.36.308-.695.308-.465 0-.72-.176-.764-.528h.449c.03.14.139.21.324.21.142 0 .24-.04.297-.12.044-.063.066-.165.066-.307l.002-.208a.559.559 0 0 1-.499.265.626.626 0 0 1-.502-.222c-.128-.15-.191-.351-.191-.606 0-.254.063-.458.19-.612a.645.645 0 0 1 .522-.238c.112 0 .205.02.28.063a.605.605 0 0 1 .206.21V6.57h.425Zm-.811.316a.314.314 0 0 0-.285.157.597.597 0 0 0-.078.32c0 .164.038.288.114.374a.324.324 0 0 0 .257.113.327.327 0 0 0 .3-.167.629.629 0 0 0 .076-.326c0-.158-.039-.28-.118-.366a.345.345 0 0 0-.266-.105ZM16.353 6.57v1.479c0 .131-.008.236-.025.314a.661.661 0 0 1-.084.215c-.13.205-.361.308-.696.308-.465 0-.72-.176-.764-.528h.45c.03.14.138.21.324.21.141 0 .24-.04.296-.12.045-.063.067-.165.067-.307l.001-.208a.559.559 0 0 1-.498.265.626.626 0 0 1-.503-.222c-.127-.15-.19-.351-.19-.606 0-.254.063-.458.19-.612a.645.645 0 0 1 .521-.238c.112 0 .205.02.28.063a.605.605 0 0 1 .206.21V6.57h.425Zm-.81.316a.314.314 0 0 0-.285.157.597.597 0 0 0-.079.32c0 .164.038.288.114.374a.324.324 0 0 0 .257.113.327.327 0 0 0 .3-.167.629.629 0 0 0 .077-.326c0-.158-.04-.28-.119-.366a.345.345 0 0 0-.266-.105ZM17.166 6v.401h-.445V6h.445Zm0 .572V8.25h-.445V6.572h.445ZM18.328 6.523c.244 0 .443.081.598.243.153.16.23.373.23.64 0 .276-.082.496-.245.66a.807.807 0 0 1-.597.229c-.262 0-.47-.085-.625-.255-.147-.162-.221-.373-.221-.631 0-.254.072-.461.215-.62.16-.177.374-.266.645-.266Zm-.023.348a.331.331 0 0 0-.282.143.655.655 0 0 0-.106.395c0 .173.035.306.105.398a.35.35 0 0 0 .293.14.333.333 0 0 0 .276-.127c.077-.095.115-.232.115-.411 0-.168-.034-.299-.101-.392a.349.349 0 0 0-.3-.146Z" fill="#fff"/></g><defs><clipPath id="a"><path fill="#fff" d="M0 0h30v30H0z"/></clipPath></defs></svg>
